originals/sin.svg

<?xml version="1.0" encoding="UTF-8"?>
<svg width="40px" height="40px" viewBox="0 0 40 40" version="1.1" xmlns="http://www.w3.org/2000/svg" xmlns:xlink="http://www.w3.org/1999/xlink">
    <title>sin</title>
    <g id="sin" stroke="none" stroke-width="1" fill="none" fill-rule="evenodd">
        <g id="sinovate" fill="#000000" fill-rule="nonzero">
            <path d="M0.00274557412,20.2476234 C-0.00678455061,17.8920302 0.335433565,15.7599346 1.0164043,13.6854872 C1.81346927,11.2571687 3.02639424,9.06653804 4.64564907,7.11182145 C6.51615264,4.85289988 8.76526208,3.10039535 11.3869128,1.85342097 C13.1265937,1.02594793 14.9485803,0.478733717 16.849407,0.205570056 C17.9912892,0.0414944798 19.1375033,-0.0321178055 20.2889156,0.0131138397 C22.5371587,0.100916445 24.7134926,0.555893582 26.8075209,1.40376521 C26.8395768,1.41706863 26.8716327,1.43037206 26.9028222,1.44544927 C26.9340117,1.46052649 26.9729986,1.47471681 26.9764641,1.51374019 C26.9807959,1.5651801 26.9340117,1.5820311 26.8967576,1.59710832 C26.6576381,1.69111919 26.4176522,1.78335627 26.1776663,1.87736714 C24.610394,2.49109848 23.0751775,3.179329 21.5832798,3.96689177 C19.92937,4.83959645 18.3413047,5.82050233 16.8684672,6.98942994 C15.5870986,8.00758541 14.4174924,9.14015033 13.4679454,10.4953259 C12.8285607,11.407054 12.3234641,12.3888467 12.0470905,13.4815014 C11.6962086,14.8659445 11.7828461,16.2361973 12.182245,17.5949204 C12.4768125,18.5988855 12.9186637,19.5372205 13.4055664,20.4551568 C14.0215591,21.6152155 14.7207237,22.7247211 15.3627075,23.8679288 C15.9466442,24.9082566 16.4898614,25.9698699 16.849407,27.118399 C17.1006557,27.920152 17.2505386,28.7414168 17.2340775,29.5866277 C17.2115517,30.699681 16.918717,31.7408957 16.4092885,32.7209147 C15.8036924,33.8871816 14.9745715,34.872522 14.0492831,35.7807025 C13.1967701,36.6170444 12.2680161,37.3567149 11.3106718,38.0617964 C11.1711854,38.1646762 11.059423,38.158468 10.9130056,38.0839688 C9.5155428,37.3744528 8.22117859,36.5052957 7.02471475,35.4818188 C5.58046767,34.2446003 4.33721958,32.8211338 3.29063861,31.2194014 C2.43985838,29.9165527 1.74762477,28.5303358 1.21567054,27.0598639 C0.685449055,25.597374 0.32936894,24.0905394 0.14309832,22.5429076 C0.0451979479,21.7269642 -0.0137155504,20.9056994 0.00274557412,20.2476234 Z" id="Path"></path>
            <path d="M12.0930233,38.4825752 C12.1306325,38.3956522 12.2192829,38.3938783 12.2882332,38.3690431 C13.6851485,37.8546011 15.0614682,37.2904888 16.4082378,36.6571929 C17.9887221,35.9139129 19.5253289,35.0908056 20.9822399,34.1284442 C22.1158904,33.3798423 23.1958134,32.5620569 24.1835041,31.6280785 C25.157763,30.7065176 26.0218804,29.6998078 26.6943698,28.5396523 C27.2388086,27.6003521 27.6059465,26.5971901 27.7250425,25.5168618 C27.8342885,24.5252304 27.7232516,23.5495645 27.4519277,22.5907509 C27.1519491,21.5325969 26.6827288,20.5454003 26.1544083,19.5830389 C25.5213191,18.4290922 24.8049523,17.3239288 24.142313,16.1877214 C23.5799651,15.2218122 23.0561218,14.2372765 22.675552,13.1844443 C22.3039367,12.1564472 22.1176813,11.100954 22.199168,10.0082082 C22.253791,9.26670204 22.4454191,8.55535288 22.7436068,7.87238672 C23.1913361,6.8443896 23.8387526,5.94677694 24.5882514,5.11746089 C25.6833971,3.90497421 26.9576346,2.89649041 28.2855996,1.94920748 C28.4315593,1.84454514 28.5533417,1.83212757 28.7163151,1.91372872 C30.1275577,2.62241698 31.448359,3.46592454 32.6661826,4.46819955 C33.9117654,5.49353576 35.020343,6.64659551 35.9847519,7.93447455 C37.7389551,10.2760728 38.9326013,12.8704572 39.5450949,15.7256106 C39.7340367,16.6081448 39.8665645,17.4977747 39.9301421,18.3980483 C39.974915,19.0277963 40.0134197,19.6584313 39.9955105,20.2899532 C39.9426785,22.1348488 39.6740409,23.9460396 39.1322885,25.7164298 C38.539495,27.6526832 37.6726912,29.4585522 36.5336679,31.1366976 C35.6829823,32.3899849 34.7006644,33.5350619 33.586714,34.5657199 C32.2927764,35.7631281 30.8672065,36.7813686 29.3064223,37.6124586 C27.4170048,38.6182814 25.4165505,39.3065694 23.3068502,39.6844182 C22.4964603,39.8298812 21.6780112,39.9168041 20.8550848,39.9655874 C20.3034824,39.9984053 19.7527754,40.0081619 19.2020684,39.9930835 C17.439806,39.9460741 15.7106757,39.6808704 14.0173636,39.1894895 C13.4326292,39.0200784 12.8568494,38.8267192 12.2909196,38.603203 C12.2183874,38.5721591 12.1333189,38.5632894 12.0930233,38.4825752 Z" id="Path"></path>
        </g>
    </g>
</svg>

<svg xmlns="http://www.w3.org/2000/svg" width="40" height="40" viewBox="0 0 40 40"><path d="M.003 20.248c-.01-2.356.332-4.488 1.013-6.563a20 20 0 0 1 3.63-6.573 19.6 19.6 0 0 1 6.74-5.259A18.9 18.9 0 0 1 16.85.206a19 19 0 0 1 3.44-.193 19.2 19.2 0 0 1 6.519 1.39q.048.02.095.042c.031.016.07.03.073.069.005.051-.042.068-.08.083l-.718.28a45 45 0 0 0-4.595 2.09c-1.654.873-3.242 1.854-4.715 3.022-1.28 1.019-2.45 2.151-3.4 3.506-.64.912-1.145 1.894-1.42 2.987-.352 1.384-.265 2.754.134 4.113.295 1.004.737 1.942 1.224 2.86.616 1.16 1.315 2.27 1.957 3.413.584 1.04 1.127 2.102 1.486 3.25.252.802.402 1.623.385 2.469-.022 1.113-.315 2.154-.825 3.134-.605 1.166-1.434 2.152-2.36 3.06-.852.836-1.781 1.576-2.738 2.28-.14.104-.252.097-.398.023a19.7 19.7 0 0 1-3.888-2.602 20 20 0 0 1-3.734-4.263 20 20 0 0 1-2.075-4.16 20.3 20.3 0 0 1-1.073-4.516c-.098-.816-.157-1.637-.14-2.295"/><path d="M12.093 38.483c.038-.087.126-.09.195-.114a52 52 0 0 0 4.12-1.712c1.58-.743 3.117-1.566 4.574-2.529 1.134-.748 2.214-1.566 3.202-2.5.974-.921 1.838-1.928 2.51-3.088.545-.94.912-1.943 1.031-3.023.11-.992-.002-1.967-.273-2.926-.3-1.058-.77-2.046-1.298-3.008-.633-1.154-1.349-2.26-2.012-3.395-.562-.966-1.086-1.95-1.466-3.004-.372-1.028-.558-2.083-.477-3.176a6.5 6.5 0 0 1 .545-2.136c.447-1.028 1.095-1.925 1.844-2.755 1.095-1.212 2.37-2.22 3.698-3.168.146-.104.267-.117.43-.035a21 21 0 0 1 3.95 2.554 20 20 0 0 1 3.319 3.466 19.8 19.8 0 0 1 3.56 7.792c.189.882.322 1.772.385 2.672.045.63.083 1.26.066 1.892-.053 1.845-.322 3.656-.864 5.426a20 20 0 0 1-2.598 5.42 19.8 19.8 0 0 1-2.947 3.43 20.4 20.4 0 0 1-4.28 3.046 20.3 20.3 0 0 1-6 2.072 21 21 0 0 1-2.452.282 19 19 0 0 1-1.653.027 20.5 20.5 0 0 1-6.911-1.39c-.073-.03-.158-.04-.198-.12"/></svg>
